libs/ui/packages/crypto-icons/src/svg/jUSDT.svg

<svg width="24" height="24" viewBox="0 0 24 24" fill="none" xmlns="http://www.w3.org/2000/svg">
<path fill-rule="evenodd" clip-rule="evenodd" d="M18.9305 4.53223H5.31837V7.8622H10.3391V10.0499C6.27388 10.2335 3.21484 11.0312 3.21484 11.9874C3.21484 12.9436 6.27388 13.7413 10.3391 13.925V20.933H13.9098V13.9252C17.9777 13.742 21.0395 12.9441 21.0395 11.9874C21.0395 11.0308 17.9777 10.2329 13.9098 10.0496V7.8622H18.9305V4.53223ZM10.3391 10.2604V12.7035C11.527 12.8091 12.7219 12.8091 13.9098 12.7035V10.2603C17.5074 10.4208 20.194 11.0563 20.194 11.8158C20.194 12.6965 16.5815 13.4105 12.125 13.4105C7.66869 13.4105 4.05609 12.6965 4.05609 11.8158C4.05609 11.0564 6.74217 10.4211 10.3391 10.2604Z" fill="white"/>
</svg>

<svg xmlns="http://www.w3.org/2000/svg" width="24" height="24" viewBox="0 0 24 24" fill="none"><path fill="#fff" fill-rule="evenodd" d="M18.93 4.532H5.318v3.33h5.021v2.188c-4.065.183-7.124.981-7.124 1.937s3.059 1.754 7.124 1.938v7.008h3.57v-7.008c4.069-.183 7.13-.98 7.13-1.938 0-.956-3.061-1.754-7.13-1.937V7.862h5.021zm-8.59 5.728v2.444a20.3 20.3 0 0 0 3.57 0V10.26c3.597.16 6.284.796 6.284 1.556 0 .88-3.613 1.595-8.069 1.595s-8.069-.714-8.069-1.595c0-.76 2.686-1.395 6.283-1.556" clip-rule="evenodd"/></svg>
